templates/_fa/fa-external-link-square.svg

<svg xmlns="http://www.w3.org/2000/svg" width="100%" height="100%" viewBox="0 0 1536 1792"><path fill="#333" d="M1280 928v-480q0-26-19-45t-45-19h-480q-42 0-59 39-17 41 14 70l144 144-534 534q-19 19-19 45t19 45l102 102q19 19 45 19t45-19l534-534 144 144q18 19 45 19 12 0 25-5 39-17 39-59zM1536 416v960q0 119-84.5 203.5t-203.5 84.5h-960q-119 0-203.5-84.5t-84.5-203.5v-960q0-119 84.5-203.5t203.5-84.5h960q119 0 203.5 84.5t84.5 203.5z" /></svg>

<svg xmlns="http://www.w3.org/2000/svg" viewBox="0 0 1536 1792"><path fill="#333" d="M1280 928V448q0-26-19-45t-45-19H736q-42 0-59 39-17 41 14 70l144 144-534 534q-19 19-19 45t19 45l102 102q19 19 45 19t45-19l534-534 144 144q18 19 45 19 12 0 25-5 39-17 39-59zm256-512v960q0 119-84.5 203.5T1248 1664H288q-119 0-203.5-84.5T0 1376V416q0-119 84.5-203.5T288 128h960q119 0 203.5 84.5T1536 416z"/></svg>
